assets/svg/svgstore.svg

<svg xmlns="http://www.w3.org/2000/svg" xmlns:xlink="http://www.w3.org/1999/xlink"><symbol id="cannon" viewBox="0 0 125 63">
    <!-- Generator: Sketch 52.6 (67491) - http://www.bohemiancoding.com/sketch -->
    <title>Cannon</title>
    <desc>Created with Sketch.</desc>
    <g id="MAIN" stroke="none" stroke-width="1" fill="none" fill-rule="evenodd">
        <g id="HOMEPAGE-TEMPLATE---FULL" transform="translate(-659.000000, -1685.000000)" fill="#FFFFFF">
            <g id="SUBFOOTER" transform="translate(-1.000000, 1445.000000)">
                <g id="Cannon" transform="translate(660.000000, 240.000000)">
                    <g>
                        <path d="M64.4859813,0.933333333 C53.1542056,0.933333333 43.3411215,7 38.0841121,16.1 L26.8691589,16.1 L26.8691589,25.4333333 L34.4626168,25.4333333 L39.2523364,25.4333333 L62.5,25.4333333 L67.7570093,25.4333333 L89.2523364,25.4333333 L94.6261682,25.4333333 L124.182243,25.4333333 L124.182243,16.1 L91.0046729,16.1 C85.6308411,7 75.817757,0.933333333 64.4859813,0.933333333 Z M75.4672897,8.4 L67.8738318,15.9833333 L67.7570093,15.9833333 L67.7570093,6.06666667 C70.4439252,6.41666667 73.1308411,7.23333333 75.4672897,8.4 Z M62.5,16.1 L54.2056075,7.93333333 C56.7757009,6.88333333 59.5794393,6.18333333 62.5,5.95 L62.5,16.1 Z M49.4158879,10.5 L54.9065421,15.9833333 L43.6915888,15.9833333 C45.3271028,13.8833333 47.3130841,12.0166667 49.4158879,10.5 Z M75.2336449,16.1 L80.0233645,11.3166667 C81.7757009,12.7166667 83.411215,14.35 84.6962617,16.1 L75.2336449,16.1 Z" id="Shape" fill-rule="nonzero"/>
                        <path d="M95.2102804,31.5 C95.2102804,30.9166667 95.2102804,30.3333333 95.2102804,29.75 L89.953271,29.75 C89.953271,29.75 89.953271,29.75 89.953271,29.75 L38.6682243,29.75 C38.6682243,29.75 38.6682243,29.75 38.6682243,29.75 L33.9953271,29.75 C33.9953271,30.3333333 33.9953271,30.9166667 33.9953271,31.5 C33.9953271,35.5833333 34.8130841,39.4333333 36.2149533,43.05 L29.7897196,46.7833333 C29.7897196,46.7833333 28.1542056,48.0666667 26.5186916,48.7666667 C23.9485981,49.9333333 23.5981308,49.8166667 23.5981308,49.8166667 L0.23364486,49.8166667 L0.23364486,58.6833333 L23.5981308,58.6833333 L25.9345794,58.45 C26.9859813,58.3333333 27.6869159,57.9833333 28.6214953,57.5166667 C30.2570093,56.7 34.228972,54.4833333 34.228972,54.3666667 L40.771028,50.6333333 C46.3785047,57.6333333 55.0233645,62.0666667 64.7196262,62.0666667 C81.4252336,62.0666667 95.2102804,48.4166667 95.2102804,31.5 Z M62.5,40.95 L62.5,57.05 C59.5794393,56.8166667 56.7757009,56.1166667 54.2056075,55.0666667 L62.5,40.95 Z M67.7570093,40.8333333 L75.817757,54.4833333 C73.364486,55.7666667 70.6775701,56.5833333 67.7570093,56.9333333 L67.7570093,40.8333333 Z M80.2570093,51.5666667 L72.546729,38.5 L85.3971963,46.0833333 C83.9953271,48.1833333 82.2429907,50.05 80.2570093,51.5666667 Z M76.8691589,35 L89.7196262,35 C89.3691589,37.2166667 88.7850467,39.4333333 87.9672897,41.5333333 L76.8691589,35 Z M38.7850467,35 L49.8831776,35 L40.1869159,40.6 C39.6028037,38.85 39.0186916,36.9833333 38.7850467,35 Z M44.7429907,48.3 L55.9579439,41.7666667 L49.5327103,52.6166667 C47.7803738,51.3333333 46.1448598,49.8166667 44.7429907,48.3 Z" id="Shape" fill-rule="nonzero"/>
                        <ellipse id="Oval" fill-rule="nonzero" cx="22.1962617" cy="20.7666667" rx="1.86915888" ry="1.86666667"/>
                    </g>
                </g>
            </g>
        </g>
    </g>
</symbol><symbol id="close" viewBox="0 0 46.8 46.8">
<g transform="translate(0, 128)">
	<g>
		<rect x="22.4" y="-136.7" transform="matrix(0.7071 0.7071 -0.7071 0.7071 -67.0956 -47.1888)" width="2" height="64.2"/>
	</g>
	<g>
		<rect x="-8.7" y="-105.6" transform="matrix(0.7071 0.7071 -0.7071 0.7071 -67.0956 -47.1888)" width="64.2" height="2"/>
	</g>
</g>
</symbol><symbol id="custom-issue" viewBox="-49 141 512 512">
<g>
	<g>
		<rect x="73.3" y="223.9" width="7" height="330.3"/>
		<rect x="73.3" y="223.9" width="253.4" height="6.9"/>
		<rect x="319.9" y="223.9" width="6.8" height="30.8"/>
		<rect x="73.4" y="547.2" width="30.7" height="7"/>
	</g>
	<g>
		<rect x="103.6" y="254.2" width="7" height="330.4"/>
		<rect x="103.6" y="254.2" width="253.4" height="6.9"/>
		<rect x="350" y="254.2" width="7" height="330.4"/>
		<rect x="103.6" y="578" width="253.4" height="6.9"/>
	</g>
	<g>
		<rect x="44" y="194.6" width="7" height="330.4"/>
		<rect x="44" y="194.6" width="253.4" height="6.9"/>
		<rect x="290.6" y="194.6" width="6.8" height="30.8"/>
		<rect x="44.1" y="518.1" width="30.7" height="7"/>
	</g>
</g>
</symbol><symbol id="logo" viewBox="0 0 82 36">
  <g id="BRAND---Dark-Example">
      <path d="M36,36 L30,36 C26.352,33.243 25.196,29.577 25.46,25.076 C25.743,20.266 25.61,15.422 25.455,10.6 C25.412,9.248 24.651,7.919 24.219,6.58 C23.761,6.616 23.303,6.653 22.844,6.689 C22.264,8.347 21.546,9.971 21.13,11.67 C19.628,17.808 18.229,23.971 16.79,30.124 C15.646,35.018 15.646,35.018 10.475,35.013 C9.809,35.012 9.141,34.961 8.478,35.001 C5.923,35.156 4.897,33.972 4.956,31.427 C5.055,27.102 4.973,22.772 4.97,18.444 C4.968,14.667 4.97,10.89 4.97,6.705 C2.849,6.831 1.424,6.915 0,7 L0,0 L10,0 C14.458,2.351 16.184,6.109 15.955,11.049 C15.788,14.669 15.922,18.304 15.922,21.932 C17.806,17.623 19.038,13.339 19.791,8.973 C20.491,4.909 22.366,1.91 26,0 L31,0 C35.062,2.826 36.536,6.648 36.169,11.598 C35.814,16.401 36.025,21.253 36.148,26.079 C36.179,27.33 36.81,28.567 37.165,29.81 C37.631,29.81 38.096,29.809 38.561,29.809 C39.076,28.351 39.711,26.923 40.084,25.43 C41.615,19.296 43.06,13.14 44.55,6.995 C45.967,1.147 45.974,1.149 51.731,1.302 C56.243,1.422 56.39,1.524 56.427,6.216 C56.477,12.544 56.366,18.874 56.496,25.199 C56.528,26.759 57.223,28.305 57.613,29.857 C58.089,29.848 58.565,29.84 59.041,29.832 C59.6,28.175 60.279,26.548 60.697,24.857 C62.013,19.527 63.21,14.168 64.492,8.83 C66.468,0.602 66.702,0.449 75.21,1.551 C75.672,1.611 76.096,1.963 77.099,2.452 L77.099,27.783 C79.112,27.872 80.556,27.936 82,28 L82,29 C81.227,30.066 80.532,31.201 79.665,32.186 C76.373,35.924 70.884,35.812 68.145,31.721 C67.104,30.165 66.561,28.049 66.443,26.148 C66.192,22.099 66.366,18.023 66.366,13.958 C65.995,13.94 65.624,13.922 65.253,13.905 C64.229,18.207 63.001,22.473 62.244,26.821 C61.585,30.603 60.05,33.682 57,36 L51,36 C46.913,33.728 45.513,30.204 45.765,25.639 C45.997,21.447 45.815,17.232 45.815,13.027 C43.884,17.869 42.572,22.774 41.62,27.748 C40.92,31.407 39.297,34.217 36,36" id="Fill-1"/>
  </g>
</symbol><symbol id="menu" viewBox="0 0 20 18">
  <g id="menu">
    <g id="line-1">
      <path d="M7.23083731,2.96L7.23083731 0.96 19.8 0.96 19.8 2.96z"/>
    </g>
    <g id="line-2">
      <path d="M0.2,10L0.2 8 19.8 8 19.8 10z"/>
    </g>
    <g id="line-3">
      <path d="M3.71312668,17.04L3.71312668 15.04 19.8 15.04 19.8 17.04z"/>
    </g>
  </g>
</symbol><symbol id="search" viewBox="0 0 24 24"><circle cx="11" cy="11" r="8"/><line x1="21" y1="21" x2="16.65" y2="16.65"/></symbol></svg>

<svg xmlns="http://www.w3.org/2000/svg"><symbol id="cannon" viewBox="0 0 125 63"><g fill-rule="nonzero" fill="#FFF"><path d="M64.486.933C53.154.933 43.341 7 38.084 16.1H26.87v9.333H124.182V16.1H91.005C85.63 7 75.818.933 64.486.933zM75.467 8.4l-7.593 7.583h-.117V6.067c2.687.35 5.374 1.166 7.71 2.333zM62.5 16.1l-8.294-8.167A27.842 27.842 0 0 1 62.5 5.95V16.1zm-13.084-5.6l5.49 5.483H43.693c1.635-2.1 3.621-3.966 5.724-5.483zm25.818 5.6l4.79-4.783c1.752 1.4 3.387 3.033 4.672 4.783h-9.462zM95.21 31.5v-1.75H33.995v1.75c0 4.083.818 7.933 2.22 11.55l-6.425 3.733s-1.636 1.284-3.271 1.984c-2.57 1.166-2.92 1.05-2.92 1.05H.233v8.866h23.364l2.337-.233c1.051-.117 1.752-.467 2.686-.933 1.636-.817 5.608-3.034 5.608-3.15l6.542-3.734c5.608 7 14.252 11.434 23.949 11.434 16.705 0 30.49-13.65 30.49-30.567zM62.5 40.95v16.1a27.842 27.842 0 0 1-8.294-1.983L62.5 40.95zm5.257-.117l8.06 13.65c-2.453 1.284-5.14 2.1-8.06 2.45v-16.1zm12.5 10.734L72.547 38.5l12.85 7.583a22.976 22.976 0 0 1-5.14 5.484zM76.869 35h12.85a31.762 31.762 0 0 1-1.752 6.533L76.87 35zm-38.084 0h11.098l-9.696 5.6c-.584-1.75-1.168-3.617-1.402-5.6zm5.958 13.3l11.215-6.533-6.425 10.85c-1.753-1.284-3.388-2.8-4.79-4.317z"/><ellipse cx="22.196" cy="20.767" rx="1.869" ry="1.867"/></g></symbol><symbol id="close" viewBox="0 0 46.8 46.8"><path d="M45.404-.01l1.414 1.414L1.422 46.8.008 45.385z"/><path d="M1.422-.01l45.396 45.395-1.414 1.415L.008 1.404z"/></symbol><symbol id="custom-issue" viewBox="-49 141 512 512"><path d="M73.3 223.9h7v330.3h-7z"/><path d="M73.3 223.9h253.4v6.9H73.3z"/><path d="M319.9 223.9h6.8v30.8h-6.8zM73.4 547.2h30.7v7H73.4z"/><g><path d="M103.6 254.2h7v330.4h-7z"/><path d="M103.6 254.2H357v6.9H103.6z"/><path d="M350 254.2h7v330.4h-7z"/><path d="M103.6 578H357v6.9H103.6z"/></g><g><path d="M44 194.6h7V525h-7z"/><path d="M44 194.6h253.4v6.9H44z"/><path d="M290.6 194.6h6.8v30.8h-6.8zM44.1 518.1h30.7v7H44.1z"/></g></symbol><symbol id="logo" viewBox="0 0 82 36"><path d="M36 36h-6c-3.648-2.757-4.804-6.423-4.54-10.924.283-4.81.15-9.654-.005-14.476-.043-1.352-.804-2.681-1.236-4.02l-1.375.109c-.58 1.658-1.298 3.282-1.714 4.981-1.502 6.138-2.901 12.301-4.34 18.454-1.144 4.894-1.144 4.894-6.315 4.889-.666-.001-1.334-.052-1.997-.012-2.555.155-3.581-1.029-3.522-3.574.099-4.325.017-8.655.014-12.983-.002-3.777 0-7.554 0-11.739L0 7V0h10c4.458 2.351 6.184 6.109 5.955 11.049-.167 3.62-.033 7.255-.033 10.883a55.618 55.618 0 0 0 3.869-12.959C20.491 4.909 22.366 1.91 26 0h5c4.062 2.826 5.536 6.648 5.169 11.598-.355 4.803-.144 9.655-.021 14.481.031 1.251.662 2.488 1.017 3.731l1.396-.001c.515-1.458 1.15-2.886 1.523-4.379 1.531-6.134 2.976-12.29 4.466-18.435 1.417-5.848 1.424-5.846 7.181-5.693 4.512.12 4.659.222 4.696 4.914.05 6.328-.061 12.658.069 18.983.032 1.56.727 3.106 1.117 4.658l1.428-.025c.559-1.657 1.238-3.284 1.656-4.975 1.316-5.33 2.513-10.689 3.795-16.027C66.468.602 66.702.449 75.21 1.551c.462.06.886.412 1.889.901v25.331L82 28v1c-.773 1.066-1.468 2.201-2.335 3.186-3.292 3.738-8.781 3.626-11.52-.465-1.041-1.556-1.584-3.672-1.702-5.573-.251-4.049-.077-8.125-.077-12.19l-1.113-.053c-1.024 4.302-2.252 8.568-3.009 12.916C61.585 30.603 60.05 33.682 57 36h-6c-4.087-2.272-5.487-5.796-5.235-10.361.232-4.192.05-8.407.05-12.612-1.931 4.842-3.243 9.747-4.195 14.721-.7 3.659-2.323 6.469-5.62 8.252"/></symbol><symbol id="menu" viewBox="0 0 20 18"><path d="M7.23 2.96v-2H19.8v2zM.2 10V8h19.6v2zM3.713 17.04v-2H19.8v2z"/></symbol><symbol id="search" viewBox="0 0 24 24"><circle cx="11" cy="11" r="8"/><path d="M21 21l-4.35-4.35"/></symbol></svg>
